X: 16532
T: Halling
R: polka
M: 2/4
K: Amajor
cdef|eced|B2 ed|c2 A2|cdef|eced|{d}B2 BG|A4|
cdef|eced|B2 ed|c2 A2|cdef|eced|{d}B2 BG|A4||
AB/c/ d/e/f/g/|a2 fa|g2 bg|e2 ge|AB/c/ d/e/f/g/|
afba|gef^d|e4|AB/c/ d/e/f/g/|a2 fa|g2 bg|e2 ge|
AB/c/ d/e/f/g/|a2 fa|g2 bg|e2 ge|AB/c/ d/e/f/g/|
afba|gef^d|e4||

